X:1
T:Title
%%score { ( 1 3 4 ) | ( 2 5 6 ) }
L:1/8
M:4/4
K:D
V:1 treble nm="Grand Piano"
V:3 treble 
V:4 treble 
V:2 bass 
V:5 bass 
V:6 bass 
V:1
 z4 z2[Q:1/4=100] [DF]>[EG] | [FA]>[FA] [=F^G]>[^FA] [Fd]>[Fd] [Ac]>[=GB] | %2
 [FA]2 [DF]2 [FA]2 [GB]>[FA] | G>F G>A c>B A>G | F2 [GB]2 [FA]2 [DF]>[EG] | %5
 [FA]>[FA] [=F^G]>[^FA] [Fd]>[Fd] [Ac]>[=GB] | [FA]>[FA] [=F^G]>[^FA] [=GB]>[FA] [EG]>[DF] | %7
 [CE]>[CE] [EA]>B c<c [Ee]>[Fd] |[M:7/8] [Ec]2 [DB]2 [CA]3 |[M:1/4] [DF]>[EG] | %10
[M:4/4] [FA]3 F [FA]3 A |[M:2/4] [GB]3 G | B4 |[M:4/4] c>c c>c c>B A>G |[M:3/4] F2 [GB]2 [FA]2 | %15
[M:1/4] [DF]>[EG] |[M:4/4] [FA]3 F [FA]3 A |[M:2/4] [GB]3 G | d4 |[M:4/4] c>c c>c d>d [Ac]>B | %20
[M:7/8] A2 e2 [Fd]3 |] %21
V:2
 z4 z2 [D,A,]>[D,A,] | [D,D]>[D,D] [D,D]>[D,D] [D,A,]>[D,A,] [D,B,]>[D,C] | %2
 [D,D]2 [D,A,]2 [D,D]2 [D,D]>[D,D] | %3
 [A,CE]>[A,CE] [A,CE]>[A,CE] [A,EG]>[A,DG] [A,CF]>[K:bass][A,E] | %4
 [D,A,D]2 [D,D]2 [D,D]2 [D,A,]>[D,A,] | [D,D]>[D,D] [D,D]>[D,D] [D,A,]>[D,A,] [D,B,]>[D,C] | %6
 [D,D]>[D,D] [D,D]>[D,D] [D,D]>[D,D] [C,A,]>[D,A,] | %7
 [A,,A,]>[A,,A,] [C,A,]>[E,^G,E] [A,E]<[A,E] [C,A,]>[D,A,] |[M:7/8] [E,A,]2 [E,^G,]2 [A,,A,]3 | %9
[M:1/4] [D,A,]>[D,A,] |[M:4/4] z2 z D z2 z F |[M:2/4] G,>G, G,>G, | [G,DG]4 | %13
[M:4/4] [A,G]>[A,G] [A,EG]>[A,EG] [A,EG]>[A,DG] [A,CF]>[K:bass][A,CE] | %14
[M:3/4] [D,A,D]2 [D,D]2 [D,D]2 |[M:1/4] [D,A,]>[D,A,] |[M:4/4] z2 z D z2 z F |[M:2/4] G,>G, G,>G, | %18
 [G,B,G]4 |[M:4/4] [A,EG]>[A,EG] [^A,EG]>[A,EG] [B,DF]>[B,DF] [F,D]>[G,DG] | %20
[M:7/8] [A,DF]2 [A,CG]2[K:bass] [D,A,D]3 |] %21
V:3
 x8 | x8 | x8 | x8 | x8 | x8 | x8 | x8 |[M:7/8] x7 |[M:1/4] x2 |[M:4/4] z4 z2 D2 |[M:2/4] z2 D2 | %12
 x4 |[M:4/4] x8 |[M:3/4] x6 |[M:1/4] x2 |[M:4/4] z4 z2 D2 |[M:2/4] z2 D2 | x4 |[M:4/4] x8 | %20
[M:7/8] x7 |] %21
V:4
 x8 | x8 | x8 | x8 | x8 | x8 | x8 | x8 |[M:7/8] x7 |[M:1/4] x2 |[M:4/4] z z/ D/ .D>A, D2 z z/ D/ | %11
[M:2/4] D>D z z/ B,/ | x4 |[M:4/4] x8 |[M:3/4] x6 |[M:1/4] x2 |[M:4/4] z z/ D/ .D>A, D2 z z/ D/ | %17
[M:2/4] D>D z z/ B,/ | x4 |[M:4/4] x8 |[M:7/8] x7 |] %21
V:5
 x8 | x8 | x8 | x15/2[K:bass] x/ | x8 | x8 | x8 | x8 |[M:7/8] x7 |[M:1/4] x2 | %10
[M:4/4] [D,D]>D, z z/ D,/ D,2 z z/ D,/ |[M:2/4] x4 | x4 |[M:4/4] x15/2[K:bass] x/ |[M:3/4] x6 | %15
[M:1/4] x2 |[M:4/4] [D,D]>D, z z/ D,/ D,2 z z/ D,/ |[M:2/4] x4 | x4 |[M:4/4] x8 | %20
[M:7/8] x4[K:bass] x3 |] %21
V:6
 x8 | x8 | x8 | x15/2[K:bass] x/ | x8 | x8 | x8 | x8 |[M:7/8] x7 |[M:1/4] x2 | %10
[M:4/4] z2 D,2 z2 D,2 |[M:2/4] x4 | x4 |[M:4/4] x15/2[K:bass] x/ |[M:3/4] x6 |[M:1/4] x2 | %16
[M:4/4] z2 D,2 z2 D,2 |[M:2/4] x4 | x4 |[M:4/4] x8 |[M:7/8] x4[K:bass] x3 |] %21

